assets/Libra/Flat/libra_flat.svg

<svg xmlns="http://www.w3.org/2000/svg" width="32" height="32" fill="none"><path fill="#8D65C5" d="M2 6a4 4 0 0 1 4-4h20a4 4 0 0 1 4 4v20a4 4 0 0 1-4 4H6a4 4 0 0 1-4-4V6Z"/><path fill="#fff" d="M20.9 21H25c.55 0 1-.45 1-1s-.45-1-1-1h-2.07c.7-1.2 1.07-2.57 1.07-4 0-4.41-3.59-8-8-8s-8 3.59-8 8c0 1.43.37 2.8 1.07 4H7c-.55 0-1 .45-1 1s.45 1 1 1h4.1c.41 0 .77-.25.93-.62.15-.37.06-.81-.23-1.09A5.966 5.966 0 0 1 10 15c0-3.31 2.69-6 6-6s6 2.69 6 6c0 1.63-.64 3.15-1.8 4.29-.29.28-.38.71-.23 1.09.16.37.52.62.93.62ZM6 24c0 .55.45 1 1 1h18c.55 0 1-.45 1-1s-.45-1-1-1H7c-.55 0-1 .45-1 1Z"/></svg>

<svg width="32" height="32" viewBox="0 0 32 32" fill="none" xmlns="http://www.w3.org/2000/svg">
<path d="M2 6C2 3.79086 3.79086 2 6 2H26C28.2091 2 30 3.79086 30 6V26C30 28.2091 28.2091 30 26 30H6C3.79086 30 2 28.2091 2 26V6Z" fill="#8D65C5"/>
<path d="M20.9 21H25C25.55 21 26 20.55 26 20C26 19.45 25.55 19 25 19H22.93C23.63 17.8 24 16.43 24 15C24 10.59 20.41 7 16 7C11.59 7 8 10.59 8 15C8 16.43 8.37 17.8 9.07 19H7C6.45 19 6 19.45 6 20C6 20.55 6.45 21 7 21H11.1C11.51 21 11.87 20.75 12.03 20.38C12.18 20.01 12.09 19.57 11.8 19.29C10.64 18.15 10 16.63 10 15C10 11.69 12.69 9 16 9C19.31 9 22 11.69 22 15C22 16.63 21.36 18.15 20.2 19.29C19.91 19.57 19.82 20 19.97 20.38C20.13 20.75 20.49 21 20.9 21Z" fill="white"/>
<path d="M6 24C6 24.55 6.45 25 7 25H25C25.55 25 26 24.55 26 24C26 23.45 25.55 23 25 23H7C6.45 23 6 23.45 6 24Z" fill="white"/>
</svg>
